X:39
T:Pastouro, Se Tu M'Aimo
M:C
L:1/8
N:Assez anime
N:La Bourre 4th edition 1929, page 50
Z:Steve Mansfield www.lesession.co.uk May 2012
K:Am
z E A G A B | c2 B A G A B G |
A3 E A G A B | c2 B A G A B G |
!fermata! A3 A A d c d f | e2 A B c d B c |
A2 "vite" B/ c/ B/ d/ c/ B/ c/ A/ B/ G/ |
A A B/ c/ B/ d/ c/ B/ c/ A/ B/ A/ B/ G/ | A4 z4 |]

